!!!COM: Scriabin, Alexander
!!!OTL@@FR: Prelude
!!!OTL@@EN:
!!!OPR@@FR: 2 Preludes
!!!OPR@@EN:
!!!OPS: 27
!!!ONM: 1
!!!ODT: 1901
!!!AGN: Prelude
**kern	**kern	**dynam
*staff2	*staff1	*staff1/2
*Ipiano	*Ipiano	*
*clefF4	*clefG2	*
*k[b-e-]	*k[b-e-]	*
*g:	*g:	*
*M9/8	*M9/8	*
8r	8ddL	.
8r	8ccJ	.
=1	=1	=1
*	*^	*
*	*	*^	*
[4.FF#X [4.F#X	8ee-L	4.b-	4c\	.
.	8.b-	.	.	.
.	.	.	8e-\	.
.	16ccJk	.	.	.
8FF#L] 8F#]	[4.dd	[4.b-	[4.d\	.
8FFn 8Fn	.	.	.	.
8FF#XJ 8F#X	.	.	.	.
8AAL 8A	8ddL]	4b-]	4d\]	.
8GG 8G	8b-	.	.	.
8FFnJ 8Fn	8aJ	8rc	8d\	.
=2	=2	=2	=2	=2
[4.EE- [4.E-	8ccL	4.g	4A\	.
.	8.g	.	.	.
.	.	.	8c\	.
.	16aJk	.	.	.
8EE-L] 8E-]	[4.b-	4g-X	4.B-\	.
8CC#X 8C#X	.	.	.	.
8DDJ 8D	.	8f	.	.
4EE- 4E-	8b-L]	4.f	4.B-\	.
.	8a	.	.	.
8DD 8D	8gnJ	.	.	.
=3	=3	=3	=3	=3
[4.DD-X [4.D-X	4b-	4.f	4G\	.
.	8f	.	8B-\	.
8DD-L] 8D-]	4a	[4.e-	4.A\	.
8BBBn 8BBn	.	.	.	.
8CCnJ 8Cn	[8g	.	.	.
4.CC#X 4.C#X	8gL]	8.e-L]	8.B-\L	.
.	8f	.	.	.
.	.	8.B-J	8.G\J	.
.	8e-J	.	.	.
=4	=4	=4	=4	=4
2.DD 2.D	4.e-	4.B-	8G\L	.
.	.	.	8A\	.
.	.	.	8G\J	.
.	[4.d	8B-L	4.F#X\	.
.	.	8G#X	.	.
.	.	8B-J	.	.
4r	8d]	8A	8F#\	.
.	8aL	8rc	8r	.
8r	8gnJ	8rc	8r	.
=5	=5	=5	=5	=5
[4.CC#X [4.C#X	8b-L	4.fn	4G\	.
.	8.f	.	.	.
.	.	.	8B-\	.
.	16gJk	.	.	.
8CC#L] 8C#]	[4.a	[4.f	[4.A\	.
8CCn 8Cn	.	.	.	.
8CC#XJ 8C#X	.	.	.	.
8EEnL 8En	8aL]	4f]	4A\]	.
8DD 8D	8f	.	.	.
8CCnJ 8Cn	8enJ	8rc	8A\	.
=6	=6	=6	=6	=6
[4.BBB- [4.BB-	8gL	4.d	4En\	.
.	8.d	.	.	.
.	.	.	8G\	.
.	16enJk	.	.	.
8BBB-L] 8BB-]	[4.f	4d-X	4.F\	.
8GGG#X 8GG#X	.	.	.	.
8AAAJ 8AA	.	8c	.	.
4BBB- 4BB-	8fL]	4.c	4.F\	.
.	8e	.	.	.
8AAA 8AA	8dnJ	.	.	.
*	*clefF4	*	*	*
=7	=7	=7	=7	=7
4.AAA-X 4.AA-X	4f	4.c	4D\	.
.	8c	.	8F\	.
4GGG 4GG	[4.e-X	8cL	4.E-X\	.
.	.	8c-X	.	.
8GGG-X 8GG-X	.	8B-J	.	.
4.FFF 4.FF	8e-L]	4.An	4E-\	.
.	8d	.	.	.
.	8cnJ	.	8E-\	.
=8	=8	=8	=8	=8
2.BBB- 2.BB-	4.c	4.G-X	8E-\L	.
.	.	.	8F\	.
.	.	.	8E-\J	.
.	[4.B-	8G-L	4.D\	.
.	.	8En	.	.
.	.	8G-J	.	.
4r	8B-]	8F	8D\	.
*	*clefG2	*	*	*
.	8AL 8a	8rc	8r	.
8r	8B-J 8b-	8rc	8r	.
*	*	*v	*v	*
=9	=9	=9	=9
4.BB- 4.G-X 4.e-	4c-X 4cc-X	4.g-X 4.a	.
.	8cn 8ccn	.	.
4.BB- 4.G- 4.c	8dL 8dd	4.a 4.cc	.
.	8e- 8ee-	.	.
.	8g-J 8gg-X	.	.
4.BB- 4.G- 4.c	4f 4ff	4.a 4.cc	.
.	8e- 8ee-	.	.
=10	=10	=10	=10
*^	*	*^	*
8rc	[2.BB- 2.c-X	4.e- 4.ee-	2.cc-X	2.a-X\	.
8A-XL	.	.	.	.	.
8G-XJ	.	.	.	.	.
8c-L	.	4d 4dd	.	.	.
8F	.	.	.	.	.
16r	.	8raa	.	.	.
16FJk	.	.	.	.	.
4F	4.BB-]	8raa	4d	4.c-X\	.
.	.	8a-L	.	.	.
8G-	.	8g-XJ	8e-	.	.
*	*	*	*v	*v	*
=11	=11	=11	=11	=11
[4.G-X	[2.BB-	8b-L	[2.c-X [2.e-	.
.	.	8.g-X	.	.
.	.	16a-XJk	.	.
8G-L]	.	[4.b-	.	.
8.E-	.	.	.	.
16FJk	.	.	.	.
8G-L	4.BB-]	8b-L]	4.c-] 4.e-]	.
8F	.	8a-	.	.
8E-J	.	8g-J	.	.
=12	=12	=12	=12	=12
*	*	*	*^	*
2.F	4.BB-	4b-	2.d	4.B-\	.
.	.	8f	.	.	.
.	4AAn	4.f	.	4.d\	.
.	8BB-	.	.	.	.
4rc	8BB-	8raa	4.rc	4.r	.
.	8rEE	8AnL 8an	.	.	.
8rc	8rEE	8B-J 8b-	.	.	.
*v	*v	*	*	*	*
*	*	*v	*v	*
=13	=13	=13	=13
4.BB- 4.G-X 4.e-	4c-X 4cc-X	4.g-X	.
.	8cn 8ccn	.	.
4G- 4c 4g-X	8dL 8dd	4.cc	.
.	8e- 8ee-	.	.
8BB-	8g-XJ 8gg-X	.	.
8qBB-/	.	.	.
4.G- 4.c 4.g-	4f 4ff	4.cc	.
.	8e- 8ee-	.	.
=14	=14	=14	=14
8FL 8Bn 8f	4.e- 4.ee-	4.bn	.
8BBB-X 8BB-X	.	.	.
8AAAJ 8AA	.	.	.
8FFL 8F	4d 4dd	4f 4bn	.
8AAA-X 8AA-X	.	.	.
*	*clefF4	*	*
16r	16rc	8rEE	.
16AAA-Jk 16AA-	16D 16F 16Bn	.	.
8AAA- 8AA-	8D 8F 8B	4.rb	.
*	*clefG2	*	*
8r	8BnL 8bn	.	.
8r	8cJ 8cc	.	.
=15	=15	=15	=15
4.C 4.A-X 4.f	4d-X 4dd-X	4.a-X	.
.	8dn 8ddn	.	.
4A- 4d 4a-X	8enL 8een	4.dd	.
.	8f 8ff	.	.
8C	8a-XJ 8aa-X	.	.
8qC/	.	.	.
4.A- 4.d 4.a-	4g 4gg	4.dd	.
.	8f 8ff	.	.
=16	=16	=16	=16
8GL 8c#X 8g	4.f 4.ff	4.cc#X	.
8CCn 8Cn	.	.	.
8BBBnJ 8BBn	.	.	.
8GGL 8G	4en 4een	4g 4cc#X	.
8BBB-X 8BB-X	.	.	.
*	*clefF4	*	*
16r	16rc	8rEE	.
16BBB-Jk 16BB-	16En 16G 16c#X	.	.
8BBB- 8BB-	8E 8G 8c#	4.rEE	.
*	*clefG2	*	*
8r	8c#XL 8cc#X	.	.
8r	8dJ 8dd	.	.
=17	=17	=17	=17
8r	4e-X 4ee-X	8rc	.
8CC#XL 8C#X	.	8b-L	.
8GJ 8B- 8g	8en 8een	8b-J	.
8r	4f#X 4ff#X	8rc	.
8B-L 8en 8b-	.	8eeL	.
8CC#J 8C#	8g 8gg	8eeJ	.
8CC#L 8C#	4g 4gg	8aL 8ee-X	.
8CCn 8Cn	.	8a 8ee-	.
8AAJ 8A	8f# 8ff#	8ccJ 8ee-	.
=18	=18	=18	=18
8r	4fn 4ffn	8rc	.
8EE-L 8E-	.	8ccL	.
8AJ 8c 8a	8f#X 8ff#X	8ccJ	.
8r	4g#X 4gg#X	8rc	.
8cL 8f#X 8cc	.	8ff#L	.
8EE-J 8E-	8a 8aa	8ff#J	.
8EE-L 8E-	4a 4aa	8bnL 8ffn	.
8DD 8D	.	8b 8ff	.
8C-XJ 8c-X	8a-X 8aa-X	8ddJ 8ff	.
=19	=19	=19	=19
8FFL 8F	4g 4gg	8ddL	.
8c-X 8d 8cc-X	.	8dd	.
8c-J 8d 8cc-	8a-X 8aa-X	8ddJ	.
8B-L 8d 8b-	[4.b- [4.bb-	8ddL	.
8B- 8d 8b-	.	8dd	.
8B-J 8d 8b-	.	8ddJ	.
8FF-XL 8F-X	4b-] 4bb-]	8ddL 8aa-	.
8A-X 8d 8a-X	.	8dd 8aa-	.
8A-J 8d 8a-	8bn 8bbn	8ddJ 8aa-	.
=20	=20	=20	=20
8EE-L 8E-	4.bn 4.bbn	8ddL 8gg	.
8G 8d 8g	.	8dd 8gg	.
8GJ 8d 8g	.	8ddJ 8gg	.
8GL 8cn 8g	4.cc 4.ccc	8ccL 8gg	.
8G 8c 8g	.	8cc 8gg	.
8GJ 8c 8g	.	8ccJ 8gg	.
8EE-L 8E-	4.cc#X 4.ccc#X	8ggL	.
8G 8B- 8g	.	8gg 8bb-X	.
8GJ 8B- 8g	.	8ggJ 8bb-	.
=21	=21	=21	=21
8DDL 8D	4cc#X 4ccc#X	8ggL 8bb-	.
8B- 8g 8b-	.	8gg 8bb-	.
8B-J 8g 8b-	8dd 8ddd	8ggJ 8bb-	.
8B-L 8d 8g 8b-	[4.ff [4.fff	8ggL 8bb-	.
8B- 8d 8g 8b-	.	8gg 8bb-	.
8B-J 8d 8g 8b-	.	8ggJ 8bb-	.
8B-L 8d 8g 8b-	4ff] 4fff]	8ggL 8bb-	.
8B- 8d 8g 8b-	.	8gg 8bb-	.
8B-J 8d 8g 8b-	8ff 8fff	8ggJ 8bb-	.
=22	=22	=22	=22
8DDL 8D	4ff 4fff	8ggL 8cccn	.
8A 8c 8g 8a	.	8gg 8ccc	.
8AJ 8c 8g 8a	8ee- 8eee-	8ggJ 8ccc	.
*clefG2	*	*	*
4e- 4ee-	8ddL 8ddd	4gg	.
.	8cc 8ccc	.	.
*clefF4	*	*	*
8r	8gJ 8gg	8rc	.
4D 4A	8e-L 8ee-	8gL	.
.	8d 8dd	8f#XJ	.
8r	8cJ 8cc	8rc	.
=23	=23	=23	=23
*^	*	*	*
*	*^	*	*	*
4.B-	4C	8r	8e-L 8ee-	4.b-	.
.	.	[4FFF#X/ [4FF#X	8.B- 8.b-	.	.
.	8E-	.	.	.	.
.	.	.	16cJk 16cc	.	.
[4.B-	[4.D	8FFF#/L] 8FF#]	[4.d [4.dd	[4.b-	.
.	.	8FFFn/ 8FFn	.	.	.
.	.	8FFF#X/J 8FF#X	.	.	.
8B-]	8D]	8AAA/L 8AA	8dL] 8dd]	8b-L]	.
8rc	8rEE	8GGG/ 8GG	8B- 8b-	8dJ	.
8rc	8rEE	8FFFn/J 8FFn	8AJ 8a	8rc	.
=24	=24	=24	=24	=24	=24
4.G	4AA	8r	8cL 8cc	4.g	.
.	.	[4EEE-\ [4EE-	8.G 8.g	.	.
.	8C	.	.	.	.
.	.	.	16AJk 16a	.	.
4G-X	[4.BB-	8EEE-\L] 8EE-]	[4.B- [4.b-	4g-X	.
.	.	8CCC#X\ 8CC#X	.	.	.
8F	.	8DDD\J 8DD	.	8f	.
4.F	8BB-]	4EEE-\ 4EE-	8B-L] 8b-]	4.f	.
.	4BB-	.	8A 8a	.	.
.	.	8DDD\ 8DD	8GnJ 8gn	.	.
=25	=25	=25	=25	=25	=25
4.F	4GG	8r	4B- 4b-	4.f	.
.	.	[4DDD-X/ [4DD-X	.	.	.
.	8BB-	.	8F 8f	.	.
4.E-	4.AA	8DDD-/L] 8DD-]	4A 4a	[4.e-	.
.	.	8BBBBn/ 8BBBn	.	.	.
.	.	8CCC/J 8CC	[8G [8g	.	.
4.BB-	4.rEE	4.CCC#X/ 4.CC#X	8GL] 8g]	8e-]	.
.	.	.	8F 8f	4G	.
.	.	.	8E-J 8e-	.	.
*	*v	*v	*	*	*
=26	=26	=26	=26	=26
4BB-	[4.DDD [4.DD	2.D 2.d	[4.F#X	.
8AA	.	.	.	.
4AA	4DDD] 4DD]	.	4F#]	.
8GGG 8GG	8rEE	.	8G	.
8GGG 8GG	4.rEE	8raa	8G	.
8rc	.	8gL 8gg	8rc	.
8rc	.	8fnJ 8ffn	8rc	.
*v	*v	*	*	*
=27	=27	=27	=27
8FL 8Bn 8e-	8a-XL 8aa-X	4.bn 4.ee-	.
8GGG 8GG	8.e- 8.ee-	.	.
8A-XJ 8B 8e-	.	.	.
.	16fJk 16ff	.	.
4G 4B 4e-	[4.g [4.gg	4.b 4.ee-	.
8GGG 8GG	.	.	.
8FL 8B 8d	8gL] 8gg]	8b 8dd	.
8F 8A- 8B	8e- 8b 8ee-	4a-	.
8GGGJ 8GG	8dJ 8dd	.	.
=28	=28	=28	=28
8E-L 8A-X 8c	8fL 8ff	4a-X 4cc	.
8GGG 8GG	8.c 8.cc	.	.
8DJ 8A- 8Bn	.	8a- 8bn	.
.	16dJk 16dd	.	.
4C 4A- 4c	[4.e- [4.ee-	4.a- 4.cc	.
8GGG 8GG	.	.	.
4C 4G 4c	4e-] 4ee-]	4.g 4.cc	.
8GGG 8GG	8e- 8ee-	.	.
=29	=29	=29	=29
4.C 4.F#X 4.An 4.c	2.e- 2.ee-	2.f#X 2.an	.
4.GGG [4.GG	.	.	.
4.GG] 4.E- 4.A	4d 4dd	4.f# 4.a	.
.	8c 8cc	.	.
=30	=30	=30	=30
*^	*	*	*
4A	[4.GG 4.E-	4c 4cc	4f#X 4a	.
8G	.	8Bn 8bn	8g	.
4E-	4.GG] 4.G	4.B 4.b	2.rc	.
8D	.	.	.	.
8D	4.rEE	8raa	.	.
8rc	.	8gL	.	.
8rc	.	8fnJ	.	.
*v	*v	*	*	*
=31	=31	=31	=31
4F	8a-XL	4.Bn 4.e-X	.
.	8e-	.	.
8A-X	8fJ	.	.
4.G	[4.g	[4.B 4.e-	.
4.F	8gL]	8B] 8d	.
.	8e-	4A-X 4B	.
.	8dJ	.	.
=32	=32	=32	=32
4E-	8fL	4A-X 4c	.
.	8c	.	.
8D	8dJ	8A- 8Bn	.
4.C	[4.e-	4.A- 4.c	.
4.C	4e-]	4.G 4.c	.
.	8e-	.	.
=33	=33	=33	=33
*	*	*^	*
2.C	2.e-	4.B-X	2.F#X\	.
.	.	4G#X	.	.
.	.	8A	.	.
4.E-	4d	4.A#X	4.F#\	.
.	8c	.	.	.
*	*	*v	*v	*
=34	=34	=34	=34
2.GGG 2.GG 2.D	2.Bn	2.G	.
4r	4raa	4rc	.
8r	8raa	8rc	.
*	*v	*v	*
==	==	==
*-	*-	*-
!!!system-decoration: {(*)}
!!!ENC: Bryan Jacob Bell
!!!END: November 2021 to April 2022
!!!PED: Günter Philipp
!!!PTL: Ausgewählte Klavierwerke (Edition Peters)
